!!!OTL@@FUR: A planc cale il soreli 
!!!OTL@IT: Pian Piano scende il sole
!!!OTL@EN: Slowly the sun sets
**kern
*clefG2
*k[]
*C:
*M3/4
*MM80
*>[A,B,C,B,D]
*>A
4g
=1
*>B
2.g
=2
4g
4g
4e
=3
2.a
=4
2.g
=5
4e
4g
4cc
=6
2ee
4cc
=7
[2.a
=8
2a]
4r
=9
4dd
4dd
4dd
=10
2dd
4cc
=11
2.cc
=12
2.b
=13
4g
4g
4g
=14
2ee
4dd
=15||
*>C
[2.cc
=16
4cc]
4r
4g
=17!|:
*>D
[2.cc
=18
4cc]
4r
4r
==
*-
!!!ARE: Friuli
!!!ENC: Kelly Leistikow
!!!END: 2002/03/07
!!!ref: @{OTL@@FUR}/@{OTL@EN}
